X:124
T:Miss Lyall - reel
O:scotland
R:Reel
M:4/4
K:Am
cB|\
AE E/E/E {ABc}cA BG|E/^F/G DG B,G, DB,|\
A,/A,/A, EA, {B,}CD Ed|cA B^G A/A/A :|
AB|\
A<a a^g ae cA|B<g g^f gd BG|\
A<a a^g ae fd|ec dB cA AB|
A<a a^g ae cA|B<g g^f gd BG|\
Ac Bd ce df|[ee][ad] [^gc][^fB] [eA]d cB|]
